X: 479
T: Xiu hebao
%%abc-version 2.0
%%abcx-abcm2ps-target-version 5.9.1 (29 Sep 2008)
%%abc-creator hum2abc beta
%%abcx-conversion-date 2013/10/02 07:52:30
%%abc-edited-by Helmut Schaffrath
%%humdrum-veritas 1004832752
%%humdrum-veritas-data 3478329275
%%continueall 1
%%barnumbers 0
L: 1/8
M: 2/4
K: Bb
f f f b [I:setbarnb 1]| 
g f e c | 
f> g f e/ c/ | 
B2c2 | 
fe2f | 
c> B A B | 
c f f A | 
F4 |]  



